X: 30
%%NRChange 2018-02-01
T: I havhingstens sp\aaner
T: Engelsk Pols dans No. 42 from Erik Jensen's notebook ca. 1790
M: 2/4
L: 1/8
Q: 90
C: CD: Totakt-pols 2008
K: D
P: A
|:"D"DE/F/ A(B/c/)|d3f|"G"gfed|"A"c(d/B/) A2|
"Bm"DE/F/ A(B/c/)|d3B|"Em"(BA)AG|"A"A2 A,2:|
P: B
|:"A"aa "G"g(a/g/)|"A"e3f|"Em"(gf) ed|"A"(c/d/)c A2|
"A"aa "G"g(a/g/)|"A"e3f|"Em"(ge) "A"dc|"D"d2D2:|
N: In Erik Jensen's notebook measure 4 is played as
N: C#-D-C#, and measures 9 and 13 are played A--G-B-G.
N: But on the CD "Totakt-pols" measure 4 is played C#-D-B,
N: and measures 9 and 13 are played A--G-A-G, as shown here.

